file/cfa-institute.svg

<svg clip-rule="evenodd" fill-rule="evenodd" stroke-linejoin="round" stroke-miterlimit="1.41421" viewBox="0 0 560 400" xmlns="http://www.w3.org/2000/svg"><g fill-rule="nonzero" transform="matrix(2.12504 0 0 2.12504 -196.025 -157.006)"><path d="m244.079 99.379c-2.277-.724-4.554-1.242-6.935-1.656l-.621-.103-8.797 64.273 9.108-5.485v-.311l7.659-56.614z" fill="#5b77cc"/><path d="m250.91 101.76-.725-.31-6.934 51.025 9.004-5.382v-.31l5.693-41.607-.414-.207c-2.07-1.139-4.347-2.277-6.624-3.209z" fill="#5b77cc"/><path d="m270.782 114.284c-2.07-1.863-4.244-3.623-6.521-5.175l-.828-.621-4.761 34.776 9.212-5.486v-.31l3.105-22.977z" fill="#5b77cc"/><path d="m184.049 108.902-.414.31c-1.967 1.346-3.83 2.795-5.589 4.347l-.518.414 44.402 46.989 1.449-10.557-.207-.207z" fill="#008ed6"/><path d="m196.779 101.864-.414.207c-2.277.931-4.45 2.069-6.624 3.311l-.724.414 35.293 37.261 1.449-10.454-.207-.207z" fill="#008ed6"/><path d="m228.036 114.18-15.939-16.767-.31.103c-2.795.518-5.486 1.139-8.073 1.967l-.932.31 24.012 25.358 1.449-10.66z" fill="#008ed6"/><g fill="#096"><path d="m293.448 154.959c-.414-2.484-1.035-4.864-1.656-7.245l-.207-.828-43.987 26.392 9.832 3.726.207-.206 35.811-21.528z"/><path d="m289.412 140.78c-.932-2.174-1.863-4.347-3.002-6.418l-.31-.621-55.373 33.224 9.936 3.726.207-.207 48.749-29.29z"/><path d="m294.38 162.825-.104-1.035-29.911 17.906 9.936 3.829.207-.103 19.768-11.903v-.311c.104-1.241.104-2.38.104-3.622.207-1.656.103-3.208 0-4.761z"/><path d="m197.297 213.437.103.31 7.038 22.045.311.104c2.691.725 5.382 1.345 8.073 1.76l1.035.207-10.764-33.327z"/><path d="m223.068 174.21-5.899 8.901.103.31 17.492 54.338.517-.104c2.381-.414 4.658-.931 6.935-1.449l.621-.207z"/><path d="m207.336 198.222.104.311 12.834 39.951h.414c1.138 0 2.173.103 3.312.103 1.345 0 2.691 0 4.036-.103h.828l-15.732-49.059z"/></g><path d="m171.732 175.038-.207.207-12.73 19.458.103.311c1.035 2.587 2.277 5.071 3.623 7.452l.517.931 19.251-29.187z" fill="#5b77cc"/><path d="m207.647 171.933-.207.207-31.257 47.61.414.311c1.759 1.552 3.622 3.104 5.485 4.554l.518.413 35.604-54.13z" fill="#5b77cc"/><path d="m189.741 173.486-.207.207-22.977 34.982.207.311c1.449 1.966 3.002 3.933 4.658 5.796l.517.621 28.256-42.953z" fill="#5b77cc"/><path d="m210.441 157.339h-.31l-56.511 5.072v.517c-.104 1.449-.104 3.002-.104 4.451 0 .931 0 1.76.104 2.691v.621l64.17-5.692z" fill="#096"/><path d="m185.498 131.051h-.311l-22.977 2.07-.103.31c-1.346 2.484-2.484 4.968-3.519 7.555l-.414.932 34.672-3.105z" fill="#096"/><path d="m198.021 144.298h-.31l-41.607 3.726-.104.415c-.621 2.38-1.138 4.76-1.552 7.245l-.104.828 50.922-4.554z" fill="#096"/><path d="m228.657 172.451 3.209 10.143.31.103 53.096 20.183.207-.518c1.138-2.07 2.173-4.14 3.208-6.417l.311-.621z" fill="#008ed6"/><path d="m237.455 199.774.31.104 39.02 14.8.31-.31c1.656-1.863 3.105-3.83 4.554-5.796l.414-.621-47.92-18.216z" fill="#008ed6"/><path d="m242.94 217.163.311.103 21.528 8.177.31-.207c2.277-1.656 4.451-3.416 6.521-5.279l.724-.724-32.602-12.317z" fill="#008ed6"/></g></svg>

<?xml version="1.0" encoding="UTF-8" standalone="no"?>
<!DOCTYPE svg PUBLIC "-//W3C//DTD SVG 1.1//EN" "http://www.w3.org/Graphics/SVG/1.1/DTD/svg11.dtd">
<svg width="100%" height="100%" viewBox="0 0 560 400" version="1.1" xmlns="http://www.w3.org/2000/svg" xmlns:xlink="http://www.w3.org/1999/xlink" xml:space="preserve" xmlns:serif="http://www.serif.com/" style="fill-rule:evenodd;clip-rule:evenodd;stroke-linejoin:round;stroke-miterlimit:1.41421;">
    <g transform="matrix(2.12504,0,0,2.12504,-196.025,-157.006)">
        <path d="M244.079,99.379C241.802,98.655 239.525,98.137 237.144,97.723L236.523,97.62L227.726,161.893L236.834,156.408L236.834,156.097L244.493,99.483L244.079,99.379Z" style="fill:rgb(91,119,204);fill-rule:nonzero;"/>
        <path d="M250.91,101.76L250.185,101.45L243.251,152.475L252.255,147.093L252.255,146.783L257.948,105.176L257.534,104.969C255.464,103.83 253.187,102.692 250.91,101.76Z" style="fill:rgb(91,119,204);fill-rule:nonzero;"/>
        <path d="M270.782,114.284C268.712,112.421 266.538,110.661 264.261,109.109L263.433,108.488L258.672,143.264L267.884,137.778L267.884,137.468L270.989,114.491L270.782,114.284Z" style="fill:rgb(91,119,204);fill-rule:nonzero;"/>
        <path d="M184.049,108.902L183.635,109.212C181.668,110.558 179.805,112.007 178.046,113.559L177.528,113.973L221.93,160.962L223.379,150.405L223.172,150.198L184.049,108.902Z" style="fill:rgb(0,142,214);fill-rule:nonzero;"/>
        <path d="M196.779,101.864L196.365,102.071C194.088,103.002 191.915,104.14 189.741,105.382L189.017,105.796L224.31,143.057L225.759,132.603L225.552,132.396L196.779,101.864Z" style="fill:rgb(0,142,214);fill-rule:nonzero;"/>
        <path d="M228.036,114.18L212.097,97.413L211.787,97.516C208.992,98.034 206.301,98.655 203.714,99.483L202.782,99.793L226.794,125.151L228.243,114.491L228.036,114.18Z" style="fill:rgb(0,142,214);fill-rule:nonzero;"/>
        <g>
            <path d="M293.448,154.959C293.034,152.475 292.413,150.095 291.792,147.714L291.585,146.886L247.598,173.278L257.43,177.004L257.637,176.798L293.448,155.27L293.448,154.959L293.448,154.959Z" style="fill:rgb(0,153,102);fill-rule:nonzero;"/>
            <path d="M289.412,140.78C288.48,138.606 287.549,136.433 286.41,134.362L286.1,133.741L230.727,166.965L240.663,170.691L240.87,170.484L289.619,141.194L289.412,140.78Z" style="fill:rgb(0,153,102);fill-rule:nonzero;"/>
            <path d="M294.38,162.825L294.276,161.79L264.365,179.696L274.301,183.525L274.508,183.422L294.276,171.519L294.276,171.208C294.38,169.967 294.38,168.828 294.38,167.586C294.587,165.93 294.483,164.378 294.38,162.825Z" style="fill:rgb(0,153,102);fill-rule:nonzero;"/>
            <path d="M197.297,213.437L197.4,213.747L204.438,235.792L204.749,235.896C207.44,236.621 210.131,237.241 212.822,237.656L213.857,237.863L203.093,204.536L197.297,213.437Z" style="fill:rgb(0,153,102);fill-rule:nonzero;"/>
            <path d="M223.068,174.21L217.169,183.111L217.272,183.421L234.764,237.759L235.281,237.655C237.662,237.241 239.939,236.724 242.216,236.206L242.837,235.999L223.068,174.21Z" style="fill:rgb(0,153,102);fill-rule:nonzero;"/>
            <path d="M207.336,198.222L207.44,198.533L220.274,238.484L220.688,238.484C221.826,238.484 222.861,238.587 224,238.587C225.345,238.587 226.691,238.587 228.036,238.484L228.864,238.484L213.132,189.425L207.336,198.222Z" style="fill:rgb(0,153,102);fill-rule:nonzero;"/>
        </g>
        <path d="M171.732,175.038L171.525,175.245L158.795,194.703L158.898,195.014C159.933,197.601 161.175,200.085 162.521,202.466L163.038,203.397L182.289,174.21L171.732,175.038Z" style="fill:rgb(91,119,204);fill-rule:nonzero;"/>
        <path d="M207.647,171.933L207.44,172.14L176.183,219.75L176.597,220.061C178.356,221.613 180.219,223.165 182.082,224.615L182.6,225.028L218.204,170.898L207.647,171.933Z" style="fill:rgb(91,119,204);fill-rule:nonzero;"/>
        <path d="M189.741,173.486L189.534,173.693L166.557,208.675L166.764,208.986C168.213,210.952 169.766,212.919 171.422,214.782L171.939,215.403L200.195,172.45L189.741,173.486Z" style="fill:rgb(91,119,204);fill-rule:nonzero;"/>
        <path d="M210.441,157.339L210.131,157.339L153.62,162.411L153.62,162.928C153.516,164.377 153.516,165.93 153.516,167.379C153.516,168.31 153.516,169.139 153.62,170.07L153.62,170.691L217.79,164.999L210.441,157.339Z" style="fill:rgb(0,153,102);fill-rule:nonzero;"/>
        <path d="M185.498,131.051L185.187,131.051L162.21,133.121L162.107,133.431C160.761,135.915 159.623,138.399 158.588,140.986L158.174,141.918L192.846,138.813L185.498,131.051Z" style="fill:rgb(0,153,102);fill-rule:nonzero;"/>
        <path d="M198.021,144.298L197.711,144.298L156.104,148.024L156,148.439C155.379,150.819 154.862,153.199 154.448,155.684L154.344,156.512L205.266,151.958L198.021,144.298Z" style="fill:rgb(0,153,102);fill-rule:nonzero;"/>
        <path d="M228.657,172.451L231.866,182.594L232.176,182.697L285.272,202.88L285.479,202.362C286.617,200.292 287.652,198.222 288.687,195.945L288.998,195.324L228.657,172.451Z" style="fill:rgb(0,142,214);fill-rule:nonzero;"/>
        <path d="M237.455,199.774L237.765,199.878L276.785,214.678L277.095,214.368C278.751,212.505 280.2,210.538 281.649,208.572L282.063,207.951L234.143,189.735L237.455,199.774Z" style="fill:rgb(0,142,214);fill-rule:nonzero;"/>
        <path d="M242.94,217.163L243.251,217.266L264.779,225.443L265.089,225.236C267.366,223.58 269.54,221.82 271.61,219.957L272.334,219.233L239.732,206.916L242.94,217.163Z" style="fill:rgb(0,142,214);fill-rule:nonzero;"/>
    </g>
</svg>
